X:1
T: Captain R. Smyth's Favourite
C:R. Mackintosh
R:Reel
Q: 232
K:D
M:4/4
L:1/8
|:B|AF dF AF DB|AF dF BE EB|AF dF AB de|fa eg fd dB|
AF dF AF DB|AF dF BE EB|AF dF AB de|fa eg fd dg|
ad fa be gb|ad fd ec Ag|ad fa gb eg|fa eg fd dg|
ad fa be gb|ad fd ec A=c|Bd GB ce Ag|fa eg fd d:|
